X:42
T:Free Mason. VWMLa.042
%%VWML:Anon2-3049-p26-0
F:http://www.vwml.org/record/Anon2/3049/p26
S:Anon. MS, late 18thC, Vaughan Williams Mem. Library
O:England;Yorkshire
Z:vmp/efdss.Simon Wilson. Reviewed PJH 2008.
M:6/8
L:1/8
Q:3/8=120
K:A
E|AGA BAB|cBA B2B|AGA FBA|GEE E2E|\
AGA BAB|cBA B2B|cBA cBA|cee e2:|
|:c|def fed|cde edc|Bcd FBA|GEE E2c|\
def fed|cde edc|dcd Bed|cAA A2:|
T:Halmires Allemande. VWMLa.043
R:allemande
S:Anon. MS, late 18thC, Vaughan Williams Mem. Library
N:It sounds alright as a slow reel. PJH.
O:England;Yorkshire
Z:vmp/efdss.Simon Wilson. Reviewed PJH 2008.
M:2/4
L:1/16
Q:1/4=100
K:A
a4e4|{d}c2Bc A2E2|F2E2 F2G2|AGAB A2A2|a4 e4|\
{d}c2Bc A2E2|F2E2 F2G2|A4 A,4:|
|:fdAd fdAd|ecAc ecAc|d2c2 B2A2|GABG E2e2|
"^e in MS"fdAd fdAd|ecAc ecAc|dcBA GABG|A4A,4:|
|:CEAE CEAE|DFAF DFAF|EGBc dcBA|GABG AFED|\
CEAE CEAE|DFAF DFAF|EGBd cBAG|A4 A,4:|
